packages/ffe-icons/icons/open/400/lg/drive_file_rename_outline.svg

<svg xmlns="http://www.w3.org/2000/svg" height="40" viewBox="0 -960 960 960" width="40"><path d="m357.332-120 146.666-146.666h302.669q30.25 0 51.791 21.559Q880-223.548 880-193.274 880-163 858.458-141.5 836.917-120 806.667-120H357.332Zm-210.666-66.666h48.333l445.002-444.335-48.333-48.333-445.002 444.335v48.333ZM80-153.377v-80.938q0-13.351 5.333-25.851 5.334-12.5 14.334-21.5l539.667-538.667q9.334-9 21.471-14 12.136-5 25.529-5 12.985 0 25.159 5T733.334-820L781-772q10 9.666 14.5 22 4.5 12.333 4.5 24.666 0 12.667-4.833 25.167-4.834 12.499-14.167 21.833L241.666-139.667q-9 9-21.352 14.334Q207.962-120 194.333-120h-80.951q-14.188 0-23.785-9.596T80-153.377Zm652.667-572.624-46-45.999 46 45.999Zm-116.999 71-24-24.333 48.333 48.333-24.333-24Z"/></svg>

<svg xmlns="http://www.w3.org/2000/svg" viewBox="0 -960 960 960" width="32" height="32"><path d="M357.33-120 504-266.67h302.67q30.25 0 51.79 21.56T880-193.27q0 30.27-21.54 51.77-21.54 21.5-51.79 21.5H357.33Zm-210.66-66.67H195L640-631l-48.33-48.33-445 444.33v48.33ZM80-153.38v-80.94q0-13.35 5.33-25.85 5.34-12.5 14.34-21.5l539.66-538.66q9.34-9 21.47-14 12.14-5 25.53-5 12.99 0 25.16 5 12.18 5 21.84 14.33L781-772q10 9.67 14.5 22t4.5 24.67q0 12.66-4.83 25.16-4.84 12.5-14.17 21.84L241.67-139.67q-9 9-21.36 14.34-12.35 5.33-25.98 5.33h-80.95q-14.19 0-23.78-9.6-9.6-9.59-9.6-23.78ZM732.67-726l-46-46 46 46Zm-117 71-24-24.33L640-631l-24.33-24Z"/></svg>
